X:1
T:Title
%%score { 1 | 2 }
L:1/8
M:6/8
K:F
V:1 treble nm="Grand Piano"
V:2 bass 
V:1
 z3 z2[Q:1/4=81] C | A>AA BFG | A3 F2 A |[M:3/8] c>cc | BFG |[M:3/4] A4- AA | %6
 [EG]>[EG] [EG][EB] [FA][EG] | A3 c2 c | =B>B BB AB |[M:5/8] [Ec]-[Ec]- [Ec]3 |[M:1/8] [Fc] | %11
[M:3/4] [Fd]2 [Fd] [Fd]2 [Fd]/[Fd]/ | [Fc]3 [CFA]2 [B,EG] | %13
 [A,DF]>[A,DF] [A,DF][=B,FA] [B,EG][B,DF] | [CEG]4- [CEG][CGB] |[M:3/8] A>AA | BBB | %17
[M:15/16] c3 d3 [Fd]3/2 |[M:3/4] [Fc]>[DFB] [CFA][CEG]/[CFA]/- [CFA][B,CG] | %19
[M:5/8] [F,A,CF]-[F,A,CF]- [F,A,CF]3 |] %20
V:2
 z3 z2 [F,A,] | [F,C]>[F,C][F,C] [F,D][F,D][F,^C] | [F,C]3 [F,A,C]2 [F,CF] | %3
[M:3/8] [F,A,F]>[F,A,F][F,A,F] | [F,D][F,D][F,^C] |[M:3/4] [F,C]4- [F,C][F,CF] | %6
 [C,C]>[C,C] [C,C][C,C] [C,C][C,C] | [F,CF]3 [F,A,F]2 [F,A,F] | %8
 [G,F]>[G,DF] [G,DF][G,DF] [G,DF][G,DF] |[M:5/8][K:bass] [C,C]-[C,C]- [C,C]3 |[M:1/8] [F,A,] | %11
[M:3/4] [B,,B,]2 [B,,B,] [B,,B,]2 [B,,B,]/[B,,B,]/ | [F,A,]3 F,2 C, | D,>D, D,G,, G,,G,, | %14
 C,4- C,E, |[M:3/8][K:treble] [F,CF]>[F,CF][F,CF] | [G,CE][G,CE][G,CG] | %17
[M:15/16] [A,CF]3 [B,F]3[K:bass] [B,,B,]3/2 |[M:3/4] [C,A,]>C, C,C,/C,/- C,C, | %19
[M:5/8] F,,-F,,- F,,3 |] %20

